Icons and Attr/Laptop/icon_9074.svg

<svg xmlns="http://www.w3.org/2000/svg" width="100" height="100" viewBox="0 0 100 100"><g><path d="M14.254 71.932c-1.739-.502-3.03-2.094-3.03-3.988v-42.71c0-2.292 1.877-4.167 4.168-4.167h67.53c2.292 0 4.168 1.875 4.168 4.167v42.708c0 1.895-1.29 3.488-3.03 3.99h-69.806zm.857-3.28h68.09v-44.129h-68.089l-.001 44.129z"/><path d="M94.289 73.869h-39.726c-.021.436-.198 1.756-1.684 1.756h-7.602c-1.69 0-1.897-1.32-1.921-1.756h-37.646s0 4.424 3.234 4.424h81.853c3.644 0 3.492-4.424 3.492-4.424z"/><path fill-rule="evenodd" clip-rule="evenodd" d="M77.399 64.922h-16.566v-7.146h16.566v7.146zM77.399 35.683h-55.018v-7.146h55.018v7.146z"/><g fill-rule="evenodd" clip-rule="evenodd"><path d="M58.185 62.256h-16.565v-1.797h16.565v1.797zM58.185 64.893h-16.565v-1.795h16.565v1.795zM58.185 59.617h-16.565v-1.795h16.565v1.795z"/></g><g fill-rule="evenodd" clip-rule="evenodd"><path d="M77.399 42.786h-16.566v-1.797h16.566v1.797zM77.399 45.423h-16.566v-1.795h16.566v1.795zM77.399 40.148h-16.566v-1.796h16.566v1.796z"/></g><g fill-rule="evenodd" clip-rule="evenodd"><path d="M77.399 50.68h-16.566v-1.796h16.566v1.796zM77.399 53.316h-16.566v-1.795h16.566v1.795zM77.399 48.042h-16.566v-1.795h16.566v1.795z"/></g><g fill-rule="evenodd" clip-rule="evenodd"><path d="M38.945 62.256h-16.565v-1.797h16.565v1.797zM38.945 64.893h-16.565v-1.795h16.565v1.795zM38.945 59.617h-16.565v-1.795h16.565v1.795z"/></g><g fill-rule="evenodd" clip-rule="evenodd"><path d="M58.185 42.786h-35.805v-1.797h35.805v1.797zM58.185 45.423h-35.805v-1.795h35.805v1.795zM58.185 40.148h-35.805v-1.796h35.805v1.796z"/></g><path fill-rule="evenodd" clip-rule="evenodd" d="M22.381 49.048h20.202v3.877h-20.202v-3.877z"/></g></svg>

<svg xmlns="http://www.w3.org/2000/svg" xmlns:xlink="http://www.w3.org/1999/xlink" version="1.1" x="0px" y="0px" width="100px" height="100px" viewBox="0 0 100 100" enable-background="new 0 0 100 100" xml:space="preserve"> <g id="Layer_1"> <g id="Your_Icon"> <g> <path id="frame_6_" d="M14.254,71.932c-1.739-0.502-3.03-2.094-3.03-3.988V25.234c0-2.292,1.877-4.167,4.168-4.167h67.53     c2.292,0,4.168,1.875,4.168,4.167v42.708c0,1.895-1.29,3.488-3.03,3.99h-1.611H14.254z M15.111,68.652h68.09V24.523H15.112     L15.111,68.652L15.111,68.652z"/> <path id="keyboard_6_" d="M94.289,73.869H54.563c-0.021,0.436-0.198,1.756-1.684,1.756c-3.738,0-3.864,0-7.602,0     c-1.69,0-1.897-1.32-1.921-1.756H5.71c0,0,0,4.424,3.234,4.424c3.234,0,78.207,0,81.853,0     C94.441,78.293,94.289,73.869,94.289,73.869z"/> <path fill-rule="evenodd" clip-rule="evenodd" d="M77.399,64.922c-5.575,0-11.015,0-16.566,0c0-2.357,0-4.684,0-7.146     c5.468,0,10.967,0,16.566,0C77.399,60.125,77.399,62.451,77.399,64.922z"/> <path fill-rule="evenodd" clip-rule="evenodd" d="M77.399,35.683c-18.516,0-36.582,0-55.018,0c0-2.356,0-4.683,0-7.146     c18.157,0,36.422,0,55.018,0C77.399,30.887,77.399,33.212,77.399,35.683z"/> <g> <path fill-rule="evenodd" clip-rule="evenodd" d="M58.185,62.256c-5.574,0-11.014,0-16.565,0c0-0.592,0-1.178,0-1.797      c5.467,0,10.967,0,16.565,0C58.185,61.049,58.185,61.635,58.185,62.256z"/> <path fill-rule="evenodd" clip-rule="evenodd" d="M58.185,64.893c-5.574,0-11.014,0-16.565,0c0-0.592,0-1.178,0-1.795      c5.467,0,10.967,0,16.565,0C58.185,63.688,58.185,64.273,58.185,64.893z"/> <path fill-rule="evenodd" clip-rule="evenodd" d="M58.185,59.617c-5.574,0-11.014,0-16.565,0c0-0.592,0-1.176,0-1.795      c5.467,0,10.967,0,16.565,0C58.185,58.412,58.185,58.998,58.185,59.617z"/> </g> <g> <path fill-rule="evenodd" clip-rule="evenodd" d="M77.399,42.786c-5.575,0-11.015,0-16.566,0c0-0.593,0-1.178,0-1.797      c5.468,0,10.967,0,16.566,0C77.399,41.58,77.399,42.165,77.399,42.786z"/> <path fill-rule="evenodd" clip-rule="evenodd" d="M77.399,45.423c-5.575,0-11.015,0-16.566,0c0-0.592,0-1.177,0-1.795      c5.468,0,10.967,0,16.566,0C77.399,44.217,77.399,44.803,77.399,45.423z"/> <path fill-rule="evenodd" clip-rule="evenodd" d="M77.399,40.148c-5.575,0-11.015,0-16.566,0c0-0.593,0-1.177,0-1.796      c5.468,0,10.967,0,16.566,0C77.399,38.943,77.399,39.527,77.399,40.148z"/> </g> <g> <path fill-rule="evenodd" clip-rule="evenodd" d="M77.399,50.68c-5.575,0-11.015,0-16.566,0c0-0.593,0-1.178,0-1.796      c5.468,0,10.967,0,16.566,0C77.399,49.473,77.399,50.059,77.399,50.68z"/> <path fill-rule="evenodd" clip-rule="evenodd" d="M77.399,53.316c-5.575,0-11.015,0-16.566,0c0-0.592,0-1.178,0-1.795      c5.468,0,10.967,0,16.566,0C77.399,52.111,77.399,52.695,77.399,53.316z"/> <path fill-rule="evenodd" clip-rule="evenodd" d="M77.399,48.042c-5.575,0-11.015,0-16.566,0c0-0.592,0-1.177,0-1.795      c5.468,0,10.967,0,16.566,0C77.399,46.836,77.399,47.422,77.399,48.042z"/> </g> <g> <path fill-rule="evenodd" clip-rule="evenodd" d="M38.945,62.256c-5.575,0-11.014,0-16.565,0c0-0.592,0-1.178,0-1.797      c5.467,0,10.966,0,16.565,0C38.945,61.049,38.945,61.635,38.945,62.256z"/> <path fill-rule="evenodd" clip-rule="evenodd" d="M38.945,64.893c-5.575,0-11.014,0-16.565,0c0-0.592,0-1.178,0-1.795      c5.467,0,10.966,0,16.565,0C38.945,63.688,38.945,64.273,38.945,64.893z"/> <path fill-rule="evenodd" clip-rule="evenodd" d="M38.945,59.617c-5.575,0-11.014,0-16.565,0c0-0.592,0-1.176,0-1.795      c5.467,0,10.966,0,16.565,0C38.945,58.412,38.945,58.998,38.945,59.617z"/> </g> <g> <path fill-rule="evenodd" clip-rule="evenodd" d="M58.185,42.786c-12.049,0-23.807,0-35.805,0c0-0.593,0-1.178,0-1.797      c11.816,0,23.703,0,35.805,0C58.185,41.58,58.185,42.165,58.185,42.786z"/> <path fill-rule="evenodd" clip-rule="evenodd" d="M58.185,45.423c-12.049,0-23.807,0-35.805,0c0-0.592,0-1.177,0-1.795      c11.816,0,23.703,0,35.805,0C58.185,44.217,58.185,44.803,58.185,45.423z"/> <path fill-rule="evenodd" clip-rule="evenodd" d="M58.185,40.148c-12.049,0-23.807,0-35.805,0c0-0.593,0-1.177,0-1.796      c11.816,0,23.703,0,35.805,0C58.185,38.943,58.185,39.527,58.185,40.148z"/> </g> <path fill-rule="evenodd" clip-rule="evenodd" d="M22.381,49.048c6.771,0,13.448,0,20.202,0c0,1.293,0,2.522,0,3.877     c-6.708,0-13.415,0-20.202,0C22.381,51.666,22.381,50.433,22.381,49.048z"/> </g> </g> </g> </svg>
